common/resources/fonts/svg/column-info.svg

<?xml version="1.0" encoding="UTF-8" standalone="no"?>
<svg width="1024px" height="1024px" viewBox="0 0 1024 1024" version="1.1" xmlns="http://www.w3.org/2000/svg" xmlns:xlink="http://www.w3.org/1999/xlink">
    <!-- Generator: Sketch 42 (36781) - http://www.bohemiancoding.com/sketch -->
    <title>column-info</title>
    <desc>Created with Sketch.</desc>
    <defs></defs>
    <g id="Page-1" stroke="none" stroke-width="1" fill="none" fill-rule="evenodd">
        <g id="column-info" fill="#000000">
            <polyline id="Line-Copy-2" points="307 210.831009 307 155 107 155 107 210.831009 107 840.789245 107 896.620254 307 896.620254 307 840.789245"></polyline>
            <path d="M581,599.152845 L581,840.789245 L581,896.620254 L381,896.620254 L381,840.789245 L381,210.831009 L381,155 L510.005387,155 C469.865471,207.19857 446,272.562245 446,343.5 C446,449.701678 499.490652,543.409946 581,599.152845 Z" id="Combined-Shape"></path>
            <path d="M855,636.658842 L855,840.789245 L855,896.620254 L655,896.620254 L655,840.789245 L655,636.317635 C686.511898,647.130594 720.320513,653 755.5,653 C790.307644,653 823.773242,647.254016 855,636.658842 Z" id="Combined-Shape"></path>
            <path d="M754.591186,598.538119 C613.643001,598.538119 498.985669,480.702971 498.985669,335.848298 C498.985669,191.031153 613.643001,73.1584776 754.591186,73.1584776 C895.53937,73.1584776 1010.1967,191.031153 1010.1967,335.848298 C1010.1967,480.702971 895.53937,598.538119 754.591186,598.538119 Z M754.591186,148.212712 C653.919127,148.212712 572.015817,232.386036 572.015817,335.848298 C572.015817,439.310561 653.919127,523.483885 754.591186,523.483885 C855.263244,523.483885 937.166554,439.310561 937.166554,335.848298 C937.166554,232.386036 855.263244,148.212712 754.591186,148.212712 Z M718.076112,335.848298 L791.106259,335.848298 L791.106259,485.956768 L718.076112,485.956768 L718.076112,335.848298 Z M754.591186,298.321181 C734.424467,298.321181 718.076112,281.519719 718.076112,260.794064 C718.076112,240.068409 734.424467,223.266947 754.591186,223.266947 C774.757904,223.266947 791.106259,240.068409 791.106259,260.794064 C791.106259,281.519719 774.757904,298.321181 754.591186,298.321181 Z" id="Combined-Shape"></path>
        </g>
    </g>
</svg>

<svg width="1024" height="1024" viewBox="0 0 1024 1024">
    <g fill-rule="evenodd">
        <path d="M307 210.831V155H107v741.62h200v-55.83m274-241.637V896.62H381V155h129.005C469.865 207.199 446 272.562 446 343.5c0 106.202 53.49 199.91 135 255.653zm274 37.506V896.62H655V636.318C686.512 647.13 720.32 653 755.5 653c34.808 0 68.273-5.746 99.5-16.341z"/>
        <path d="M754.591 598.538c-140.948 0-255.605-117.835-255.605-262.69 0-144.817 114.657-262.69 255.605-262.69 140.948 0 255.606 117.873 255.606 262.69 0 144.855-114.658 262.69-255.606 262.69zm0-450.325c-100.672 0-182.575 84.173-182.575 187.635 0 103.463 81.903 187.636 182.575 187.636 100.672 0 182.576-84.173 182.576-187.636 0-103.462-81.904-187.635-182.576-187.635zm-36.515 187.635h73.03v150.109h-73.03V335.848zm36.515-37.527c-20.167 0-36.515-16.801-36.515-37.527 0-20.726 16.348-37.527 36.515-37.527s36.515 16.801 36.515 37.527c0 20.726-16.348 37.527-36.515 37.527z"/>
    </g>
</svg>
